X:1
T: Waldridge Fell
C: Alexander Forster Ms 1755
S: Beamish Museum
S: Noel <noelbats:onetel.com> tradtunes 2009-3-3
M: 6/8
R: Jig
L: 1/8
Z: Noel Jackson
K: G
D \
| "G"DGG  BGG | "C"cGG  "G"BGG | "G"ded "Em"dcB | "Am"BAA "D7"A2d \
| "G"DGG  BGG | "C"cGG  "G"BGG | "G"ded "Em"dcB | "D7"AGG  "G"G2 :|
B \
| "G"d^cd "C"efg | "G"d^cd "C"efg | "G"ded "Em"dcB | "Am"BAA "D7"A2B \
| "G"d^cd "C"efg | "G"d^cd "C"efg | "G"ded "Em"dcB | "D7"AGG  "G"G2B |]
| "G"d^cd "C"efg | "G"d^cd "C"efg | "G"ded "Em"dcB | "Am"BAA "D7"A2D \
| "G"DGG     BGG | "C"cGG  "G"BGG | "G"ded "Em"dcB | "D7"AGG  "G"G2  |]
